resources/icons/ark-testnet.svg

<svg width="16" height="16" viewBox="0 0 16 16" xmlns="http://www.w3.org/2000/svg">
<path d="M16 14.989L8.0292 2V6.53964L16 14.989Z" fill="currentColor"/>
<path d="M11.627 12.2777L10.3439 10.9218H8.02054V12.2777H11.627Z" fill="currentColor"/>
<path d="M9.42849 9.97807L8.02878 8.52393L8.01892 9.97807H9.42849Z" fill="currentColor"/>
<path d="M6 7.12704C5.23256 7.12704 4.61043 7.74248 4.61043 8.50167C4.61043 9.26086 5.23256 9.8763 6 9.8763M5.87479 3C5.41374 3.00001 5.02287 3.3354 4.95772 3.78692L4.7763 5.04255C4.33645 5.18842 3.93069 5.42017 3.58307 5.72406L2.39314 5.25167C1.96511 5.0828 1.47669 5.25083 1.24695 5.646L1.12418 5.8572C0.893639 6.25221 0.991828 6.7548 1.35455 7.03638L2.37194 7.82531C2.28762 8.27053 2.28822 8.72743 2.37371 9.17243L1.35708 9.96472C0.992235 10.2464 0.893518 10.7512 1.12586 11.1472L1.24937 11.3589C1.48049 11.7519 1.96803 11.9179 2.39473 11.7488L3.59663 11.2739C3.94337 11.5695 4.34295 11.7983 4.77476 11.9485L4.9597 13.2136C5.02507 13.6648 5.41572 13.9999 5.8765 14" fill="none" stroke="currentColor" stroke-width="1.6" stroke-linecap="round" stroke-linejoin="round"/>
</svg>

<svg width="16" height="16" xmlns="http://www.w3.org/2000/svg"><path d="M16 14.989 8.03 2v4.54L16 14.989ZM11.627 12.278l-1.283-1.356H8.02v1.356h3.606ZM9.428 9.978l-1.4-1.454-.01 1.454h1.41Z" fill="currentColor"/><path d="M6 7.127c-.767 0-1.39.615-1.39 1.375 0 .759.623 1.374 1.39 1.374M5.875 3a.923.923 0 0 0-.917.787l-.182 1.256c-.44.145-.845.377-1.193.681l-1.19-.472a.931.931 0 0 0-1.146.394l-.123.211a.91.91 0 0 0 .23 1.18l1.018.788c-.084.446-.084.902.002 1.347l-1.017.793a.91.91 0 0 0-.231 1.182l.123.212a.931.931 0 0 0 1.146.39l1.202-.475c.346.296.746.524 1.178.675l.185 1.265a.923.923 0 0 0 .917.786" fill="none" stroke="currentColor" stroke-width="1.6" stroke-linecap="round" stroke-linejoin="round"/></svg>
